Papirus/16x16/apps/coypu.svg

<svg xmlns="http://www.w3.org/2000/svg" width="16" height="16" version="1.1" viewBox="0 0 4.23 4.23">
 <g transform="translate(0,-292.76666)">
  <circle style="fill:#fb6651" cx="2.117" cy="294.883" r="2.117"/>
  <path style="fill:#ffffff;fill-rule:evenodd" transform="matrix(0.26458333,0,0,0.26458333,0,292.76666)" d="m 6.1914062,5.0019531 c -3e-7,0 -0.1576617,-0.00166 -0.2265624,0.00586 C 4.4007807,5.0002534 3.52427,6.2801076 2.7539062,7.2363281 2.4138066,7.660051 2.140625,7.9980469 2.140625,7.9980469 1.5264549,8.6333855 0.78446961,9.3005242 0.10546875,9.6738281 0.14176015,9.8892612 0.18841242,10.102837 0.2421875,10.314453 0.50201865,10.192374 0.72883155,10.073443 0.859375,9.96875 1.5157276,9.4422996 2.5626911,8.6136089 2.6796875,8.6136089 c 0.1169964,0 0.2187835,-0.032241 0.3027752,0.2587823 0.083992,0.2910236 -0.066447,0.5924526 -0.066447,0.5924526 0,0 -0.1553209,0.4333112 -0.1464844,0.6718752 0.120214,0.860031 0.2698117,1.721847 0.9737501,1.839843 C 4.250359,12.046106 4.9991407,12 4.9991407,12 l 0.017578,-0.128906 C 5.0003157,11.67796 4.6026563,11.595703 4.6026563,11.595703 c -0.00312,0.0023 -0.5033979,0.09625 -0.7226562,-0.0039 -0.3698608,-0.169323 -0.2022657,-0.833496 -0.2022657,-0.917969 0,-0.08428 0.1230469,-0.351562 0.1230468,-0.351562 0,0 0.4076549,0.05469 0.5429688,0.05469 0.1353146,0 0.4863281,0.01563 0.4863281,0.01563 l 0.2617188,0.490234 C 5.1741603,11.041931 5.2754795,10.963339 5.4121094,11 L 5.9960938,11.0078 6.4003906,11 v -0.205078 c 0,0.205606 -2.699e-4,-0.195503 -0.2617187,-0.201172 -0.2265487,-0.01134 -0.5216969,-0.03946 -0.546875,-0.121094 -0.041269,-0.134173 0.017578,-0.396484 0.017578,-0.396484 0,0 0.2915034,-0.1419881 0.90625,-0.01953 0.6147481,0.1217 1.8835783,0.743773 1.8835783,0.743773 -0.175767,0.324661 -0.3356738,0.565914 -0.3671875,0.898437 -0.031899,0.301228 -0.032009,0.302734 0.1660156,0.302734 h 1.0019531 c 0,0 -2.428e-4,-0.400966 -0.2714844,-0.380859 -0.1902198,-0.0076 -0.4101562,-0.01809 -0.4101562,-0.0332 0,-0.07597 0.3632812,-0.566406 0.3632812,-0.566406 C 9,11 9.2031203,11.035674 9.4453124,11.038725 c 0.4760023,0.006 0.7789456,0.06055 0.7789456,0.06055 0.180072,0.108473 0.215332,0.469364 0.304688,0.622851 0.071,0.278929 0.07119,0.277533 0.226562,0.283203 0.340456,0.0076 0.884354,-0.0066 1.217148,-0.0293 0,0 -0.17302,-0.376953 -0.726914,-0.376953 0,0 -0.201816,-0.126296 -0.238281,-0.316407 -0.03647,-0.19011 -0.01367,-1.261182 -0.01367,-1.261182 L 12,10 c 0,0 0,0.900355 0.363283,0.97458 0,0 0.335002,0.04421 0.542969,-0.03516 0.207969,-0.07899 0.58309,-0.131649 0.800781,-0.367151 0.217693,-0.235465 0.362711,-1.0942002 0.289063,-1.4082034 C 13.922446,8.8499838 13.517578,8.4746094 13.517578,8.4746094 12.657042,7.6584204 12,6 11,6 10,6 10.191048,6.437537 10,6.3 8.8093565,5.4790866 7.6190722,5.0601578 6.1914062,5.0019531 Z M 12.5,8 C 12.77614,8 13,8.2237921 13,8.5 13,8.7762835 12.776142,9 12.5,9 12.223856,9 12,8.7758677 12,8.5 12,8.2240945 12.223858,8 12.5,8 Z"/>
 </g>
</svg>

<svg xmlns="http://www.w3.org/2000/svg" width="16" height="16" version="1.1">
 <circle style="fill:#fb6651" cx="8" cy="8" r="8"/>
 <path style="fill:#ffffff" d="M 0.17383,9.6095 A 8,8 0 0 0 0.29102,10.141 8,8 0 0 0 0.33008,10.26 C 0.53884,10.158 0.73963,10.057 0.84961,9.9689 1.5064,9.4422 2.5549,8.6134 2.6719,8.6134 2.789,8.6134 2.8905,8.5799 2.9746,8.8712 3.0587,9.1624 2.9082,9.4649 2.9082,9.4649 2.9082,9.4649 2.7529,9.8994 2.7617,10.139 2.882,10.999 3.0317,11.861 3.7363,11.979 4.2438,12.048 4.9922,12.002 4.9922,12.002 L 5.0098,11.873 C 4.9934,11.68 4.5957,11.598 4.5957,11.598 4.5925,11.6 4.0925,11.694 3.873,11.594 3.5028,11.424 3.6699,10.76 3.6699,10.676 3.6699,10.592 3.793,10.322 3.793,10.322 3.793,10.322 4.2025,10.379 4.3379,10.379 4.4734,10.379 4.8242,10.395 4.8242,10.395 L 5.0859,10.885 C 5.1683,11.044 5.2695,10.965 5.4062,11.002 L 5.9902,11.01 6.3945,11.002 V 10.797 C 6.3945,11.003 6.3944,10.601 6.1328,10.596 5.906,10.584 5.6111,10.556 5.5859,10.475 5.5445,10.34 5.6035,10.076 5.6035,10.076 5.6035,10.076 5.8965,9.9353 6.5117,10.059 7.127,10.18 8.3965,10.801 8.3965,10.801 8.2206,11.126 8.0609,11.368 8.0293,11.701 7.9974,12.002 7.9971,12.004 8.1953,12.004 H 9.1973 C 9.1973,12.004 9.1973,11.603 8.9258,11.623 8.7355,11.615 8.5156,11.605 8.5156,11.59 8.5156,11.514 8.8789,11.021 8.8789,11.021 8.9974,11 9.201,11.036 9.4434,11.039 9.9197,11.045 10.223,11.1 10.223,11.1 10.403,11.209 10.438,11.572 10.527,11.725 10.598,12.004 10.599,12.003 10.756,12.008 11.096,12.016 11.639,12.002 11.973,11.979 11.973,11.979 11.798,11.602 11.244,11.602 11.244,11.602 11.043,11.474 11.006,11.283 10.97,11.093 10.992,10.021 10.992,10.021 L 12,10 C 12,10 12,10.902 12.363,10.977 12.363,10.977 12.698,11.019 12.906,10.939 13.114,10.86 13.489,10.808 13.707,10.572 13.925,10.337 14.07,9.4784 13.996,9.1642 13.922,8.8498 13.52,8.4747 13.52,8.4747 12.658,7.6579 11.999,5.9981 10.998,5.9981 9.997,5.9981 10.189,6.4346 9.998,6.297 8.8064,5.4754 7.6143,5.0563 6.1855,4.9981 6.1855,4.9981 6.0279,4.9965 5.959,5.004 4.3937,4.9965 3.5171,6.2776 2.7461,7.2345 2.4057,7.6587 2.1328,7.9962 2.1328,7.9962 1.5418,8.6077 0.83168,9.229 0.17383,9.6095 Z M 12.5,7.9981 C 12.776,7.9981 13,8.2236 13,8.5001 13,8.7766 12.776,9.0001 12.5,9.0001 12.224,9.0001 12,8.7762 12,8.5001 12,8.2239 12.224,7.9981 12.5,7.9981 Z"/>
</svg>
